X: 6
T:Promenade [in D]
M:9/8
L:1/8
R:Slip Jig
K:DDor
A2D D2C A,2G,|A,2D D2E F2G|A2D D2C A,2G,|A,2C C2B, C2F|!
A2D D2C A,2G,|A,2D D2E F2G|A2D D2C A,2G,|A,2C C2B, C3|]!
A2d d2^c d3|A2d d2B cBA|G2c c2B c3|d2c c2A GAG|!
A2d d2^c d3|A2d d2B cBA|G2c c2B c3|d2c c2A G3|]!
